images/search.svg

<svg width="14" height="14" fill="none" xmlns="http://www.w3.org/2000/svg"><path fill-rule="evenodd" clip-rule="evenodd" d="M1.66329 6.18799c0-2.57733 2.08934-4.66667 4.66667-4.66667s4.66664 2.08934 4.66664 4.66667c0 1.25727-.4972 2.39842-1.30567 3.23755a.67217.67217 0 0 0-.06574.05772.67185.67185 0 0 0-.05771.06572c-.83913.80852-1.98026 1.30572-3.23752 1.30572-2.57733 0-4.66667-2.08938-4.66667-4.66671Zm8.41181 4.68791c-1.02648.8211-2.32848 1.3121-3.74514 1.3121-3.31371 0-6-2.6863-6-6.00001 0-3.31371 2.68629-6 6-6s6.00004 2.68629 6.00004 6c0 1.41668-.491 2.71869-1.3121 3.74514l2.4501 2.45017c.2604.2603.2604.6824 0 .9428-.2603.2603-.6825.2603-.9428 0l-2.4501-2.4502Z" fill="#2D3440"/></svg>

<svg width="14" height="14" viewBox="0 0 14 14" fill="none" xmlns="http://www.w3.org/2000/svg">
<path fill-rule="evenodd" clip-rule="evenodd" d="M1.66329 6.18799C1.66329 3.61066 3.75263 1.52132 6.32996 1.52132C8.90729 1.52132 10.9966 3.61066 10.9966 6.18799C10.9966 7.44526 10.4994 8.58641 9.69093 9.42554C9.66808 9.44309 9.64612 9.46234 9.62519 9.48326C9.60427 9.50418 9.58503 9.52614 9.56748 9.54898C8.72835 10.3575 7.58722 10.8547 6.32996 10.8547C3.75263 10.8547 1.66329 8.76532 1.66329 6.18799ZM10.0751 10.8759C9.04862 11.697 7.74662 12.188 6.32996 12.188C3.01625 12.188 0.329956 9.5017 0.329956 6.18799C0.329956 2.87428 3.01625 0.187988 6.32996 0.187988C9.64367 0.187988 12.33 2.87428 12.33 6.18799C12.33 7.60467 11.839 8.90668 11.0179 9.93313L13.468 12.3833C13.7284 12.6436 13.7284 13.0657 13.468 13.3261C13.2077 13.5864 12.7855 13.5864 12.5252 13.3261L10.0751 10.8759Z" fill="#2D3440"/>
</svg>
